www/assets/icons/vape_free.svg

<svg width="24" height="24" viewBox="0 0 24 24" xmlns="http://www.w3.org/2000/svg" fill='currentColor'><path d="M2.30501 16.2002H3.30501C4.63501 16.2002 6.01501 16.0202 7.30501 15.7002V18.7002C6.01501 18.3802 4.63501 18.2002 3.30501 18.2002H2.30501V16.2002ZM16.475 18.7002H8.30501V15.7002H13.475L1.69501 3.9202L3.10501 2.5102L21.485 20.8902L20.075 22.3002L16.475 18.7002ZM19.135 15.7002H22.305V18.7002H22.135L19.135 15.7002ZM11.305 17.2002C11.305 16.9202 11.085 16.7002 10.805 16.7002C10.525 16.7002 10.305 16.9202 10.305 17.2002C10.305 17.4802 10.525 17.7002 10.805 17.7002C11.085 17.7002 11.305 17.4802 11.305 17.2002ZM22.305 12.4602V14.7002H20.805V12.4702C20.805 10.2302 19.045 8.4002 16.805 8.4002V6.9002C17.825 6.9002 18.655 6.0702 18.655 5.0502C18.655 4.0302 17.825 3.2002 16.805 3.2002V1.7002C18.655 1.7002 20.155 3.2002 20.155 5.0502C20.155 5.9802 19.775 6.8202 19.155 7.4302C21.025 8.3202 22.305 10.2402 22.305 12.4602ZM11.455 8.0202C11.455 8.01019 11.455 8.0102 11.455 8.0002C11.455 6.1502 12.955 4.6502 14.805 4.6502V6.1502C13.785 6.1502 12.955 6.8802 12.955 7.9002C12.955 8.9202 13.785 9.9002 14.805 9.9002H16.335C18.205 9.9002 19.805 11.2502 19.805 13.0602V14.7002H18.305V13.4002C18.305 12.0902 17.385 11.3502 16.335 11.3502H14.805C14.795 11.3502 14.795 11.3502 14.785 11.3502L11.455 8.0202Z"/></svg>

<svg xmlns="http://www.w3.org/2000/svg" width="24" height="24" viewBox="0 0 24 24" fill='currentColor'><path d="M2.305 16.2h1c1.33 0 2.71-.18 4-.5v3c-1.29-.32-2.67-.5-4-.5h-1zm14.17 2.5h-8.17v-3h5.17L1.695 3.92l1.41-1.41 18.38 18.38-1.41 1.41zm2.66-3h3.17v3h-.17zm-7.83 1.5c0-.28-.22-.5-.5-.5s-.5.22-.5.5.22.5.5.5.5-.22.5-.5m11-4.74v2.24h-1.5v-2.23c0-2.24-1.76-4.07-4-4.07V6.9c1.02 0 1.85-.83 1.85-1.85s-.83-1.85-1.85-1.85V1.7c1.85 0 3.35 1.5 3.35 3.35 0 .93-.38 1.77-1 2.38 1.87.89 3.15 2.81 3.15 5.03m-10.85-4.44V8c0-1.85 1.5-3.35 3.35-3.35v1.5c-1.02 0-1.85.73-1.85 1.75s.83 2 1.85 2h1.53c1.87 0 3.47 1.35 3.47 3.16v1.64h-1.5v-1.3c0-1.31-.92-2.05-1.97-2.05h-1.55z"/></svg>
